X: 25949
T: Maurice O'Keeffe's
R: polka
M: 2/4
K: Dmajor
F2 G>B|BA D>d|cA Bc|BA FE|
F2 G>B|BA D>d|cA GE|ED D2:|
f2 f>g|fd A>d|cA Bc|BA FD|
f2 f>g|fd A>d|cA Bc|ed d2|
f2 f>g|fd A>d|cA Bc|BA FD|
F2 G>B|BA D>d|cA GE|ED D2||

